packages/ui-icons/svg/Solid/quiz-stats-deviation.svg

<svg viewBox="0 0 1920 1920" version="1.1" xmlns="http://www.w3.org/2000/svg">
    <path d="M677.647059,872.097882 L677.647059,1047.94729 C677.647059,1155.12847 764.837647,1242.31906 872.131765,1242.31906 L934.927059,1242.31906 C1042.22118,1242.31906 1129.41176,1155.12847 1129.41176,1047.94729 L1129.41176,872.097882 C1129.41176,764.916706 1042.22118,677.613176 934.927059,677.613176 L872.131765,677.613176 C764.837647,677.613176 677.647059,764.916706 677.647059,872.097882 M1411.76471,677.647059 L1171.08706,677.647059 C1214.90824,730.842353 1242.35294,797.929412 1242.35294,872.131765 L1242.35294,1047.86824 C1242.35294,1217.39294 1104.45176,1355.29412 934.927059,1355.29412 L872.131765,1355.29412 C702.607059,1355.29412 564.705882,1217.39294 564.705882,1047.86824 L564.705882,872.131765 C564.705882,702.607059 702.607059,564.705882 872.131765,564.705882 L1411.76471,564.705882 L1411.76471,677.647059 Z M960,0 C430.644706,0 -2.5243549e-29,430.644706 -2.5243549e-29,960 C-2.5243549e-29,1489.35529 430.644706,1920 960,1920 C1489.35529,1920 1920,1489.35529 1920,960 C1920,430.644706 1489.35529,0 960,0 L960,0 Z" stroke="none" stroke-width="1" fill-rule="evenodd"/>
</svg>

<svg viewBox="0 0 1920 1920" version="1.1" xmlns="http://www.w3.org/2000/svg">
    <path d="M677.647 872.098v175.85c0 107.18 87.19 194.371 194.485 194.371h62.795c107.294 0 194.485-87.19 194.485-194.372v-175.85c0-107.18-87.19-194.484-194.485-194.484h-62.795c-107.294 0-194.485 87.304-194.485 194.485m734.118-194.45h-240.678c43.821 53.194 71.266 120.281 71.266 194.484v175.736c0 169.525-137.901 307.426-307.426 307.426h-62.795c-169.525 0-307.426-137.901-307.426-307.426V872.132c0-169.525 137.901-307.426 307.426-307.426h539.633v112.941zM960 0C430.645 0 0 430.645 0 960s430.645 960 960 960 960-430.645 960-960S1489.355 0 960 0z" stroke="none" stroke-width="1" fill-rule="evenodd"/>
</svg>
